icons/moon-clear-fill.svg

<svg viewBox="0 0 24 24" fill="currentColor" xmlns="http://www.w3.org/2000/svg"><path d="M9.8216 2.23796C9.29417 3.38265 9 4.65697 9 6C9 10.9706 13.0294 15 18 15C19.343 15 20.6174 14.7058 21.762 14.1784C20.7678 18.6537 16.7747 22 12 22C6.47715 22 2 17.5228 2 12C2 7.22532 5.3463 3.23221 9.8216 2.23796ZM18.1642 2.29104L19 2.5V3.5L18.1642 3.70896C17.4476 3.8881 16.8881 4.4476 16.709 5.16417L16.5 6H15.5L15.291 5.16417C15.1119 4.4476 14.5524 3.8881 13.8358 3.70896L13 3.5V2.5L13.8358 2.29104C14.5524 2.1119 15.1119 1.5524 15.291 0.835829L15.5 0H16.5L16.709 0.835829C16.8881 1.5524 17.4476 2.1119 18.1642 2.29104ZM23.1642 7.29104L24 7.5V8.5L23.1642 8.70896C22.4476 8.8881 21.8881 9.4476 21.709 10.1642L21.5 11H20.5L20.291 10.1642C20.1119 9.4476 19.5524 8.8881 18.8358 8.70896L18 8.5V7.5L18.8358 7.29104C19.5524 7.1119 20.1119 6.5524 20.291 5.83583L20.5 5H21.5L21.709 5.83583C21.8881 6.5524 22.4476 7.1119 23.1642 7.29104Z"/></svg>

<svg xmlns="http://www.w3.org/2000/svg" viewBox="0 0 24 24">
    <g>
        <path fill="none" d="M0 0h24v24H0z"/>
        <path d="M9.822 2.238a9 9 0 0 0 11.94 11.94C20.768 18.654 16.775 22 12 22 6.477 22 2 17.523 2 12c0-4.775 3.346-8.768 7.822-9.762zm8.342.053L19 2.5v1l-.836.209a2 2 0 0 0-1.455 1.455L16.5 6h-1l-.209-.836a2 2 0 0 0-1.455-1.455L13 3.5v-1l.836-.209A2 2 0 0 0 15.29.836L15.5 0h1l.209.836a2 2 0 0 0 1.455 1.455zm5 5L24 7.5v1l-.836.209a2 2 0 0 0-1.455 1.455L21.5 11h-1l-.209-.836a2 2 0 0 0-1.455-1.455L18 8.5v-1l.836-.209a2 2 0 0 0 1.455-1.455L20.5 5h1l.209.836a2 2 0 0 0 1.455 1.455z"/>
    </g>
</svg>
